X: 35
T: The Honble Mrs Maul's Reel
R: reel
M: C|
L: 1/8
Z: 2012 John Chambers <jc:trillian.mit.edu>
B: J. Anderson "Budget of Strathspeys, Reels and Country Dances" (Early 1800s) p.3 #2
F: http://imslp.org/wiki/Anderson%27s_Budget_of_Strathspeys,_Reels_and_Country_Dances_(Various)
K: A
e |\
a2(ed) cAec | Bcde fBbg | (f/g/a) (ed) cAec | dfed (cA) A :|
e |\
(c/B/A) (EA) cAec | Bcde fBed | cA EA cAec | dBed cAAe |
(c/B/A) (EA) cAec | Bcde fded | cefd eabg | afed cAA |]

%%sep 2 1 500
%%sep 1 1 500

